X: 22992
T: Lasses' Fashions, The
R: reel
M: 4/4
K: Amajor
A~F3 AEEc|A~F3 c3B|A~F3AEEA|FGABc2 Bc|
A~F3 AEEc|A~F3 c3B|A~F3 AEEA|FGAB cBcd||
eAfA cBBf|eAfA c3a|eAfA cBBc|AFAB c3d|
eAfA cBBf|eAfA c3a|agfa eacA|FGABc3B||

